X:2
T:Langstrom's Pony, p.2
R:jig
M:6/8
L:1/8
K:Amix
Ace ~a3|ecA ecA|GBd ~g3|dBG Bcd|
~f3 ~g3|fed cBA|faf gfe|dBG Bcd:|
AEA ~A2d|cAc ecB|AEA ~A2=c|BGB dcB|
AEA ~A2d|cAc efg|faf gfe|dBG Bcd:|
<abc>
